X: 8916
T: Curlews, The
R: reel
M: 4/4
K: Bminor
Bcde|:fBBA Bcde|fege agae|~f2ed cAFA|EAce agba|
fBBA Bcde|fece a3f|gbeg effe|1 dBBA Bcde:|2 dBBA B2BA||
Bdcd BF (3FFF|DF (3FFF Bcdf|ecBc AEED|CEAB cAdc|
Bdcd BD (3FFF|DF (3FFF Bcdf|edce afea|1 efec ABcA:|2 efec Bcde||

